64x64/apps/claudia.svg

<svg height="64" width="64" xmlns="http://www.w3.org/2000/svg"><rect height="58" opacity=".2" rx="2.9" transform="matrix(0 -1 -1 0 0 0)" width="58" x="-61" y="-61"/><rect fill="#752828" height="58" rx="2.9" transform="matrix(0 -1 -1 0 0 0)" width="58" x="-60" y="-61"/><path d="m5.898 2a2.891 2.891 0 0 0 -2.898 2.898v1a2.891 2.891 0 0 1 2.898-2.898h52.204a2.891 2.891 0 0 1 2.898 2.898v-1a2.891 2.891 0 0 0 -2.898-2.898z" fill="#f4f4f7" opacity=".1"/><path d="m31 30c-10.77 0-20 4.701-20 10.5s9.23 10.5 20 10.5 20-4.701 20-10.5-9.23-10.5-20-10.5zm0 4c8.56 0 16 2.91 16 6.5s-7.44 6.5-16 6.5-16-2.91-16-6.5 7.44-6.5 16-6.5z" opacity=".2"/><path d="m31 29c-10.77 0-20 4.701-20 10.5s9.23 10.5 20 10.5 20-4.701 20-10.5-9.23-10.5-20-10.5zm0 4c8.56 0 16 2.91 16 6.5s-7.44 6.5-16 6.5-16-2.91-16-6.5 7.44-6.5 16-6.5z" fill="#6c7f94"/><path d="m37.5 11c-.831 0-1.5.752-1.5 1.686v24.027c-1.044-.464-2.259-.712-3.5-.713-3.59 0-6.5 2.015-6.5 4.5s2.91 4.5 6.5 4.5 6.5-2.015 6.5-4.5v-27.814c0-.934-.669-1.686-1.5-1.686z" opacity=".2"/><path d="m37.5 10c-.831 0-1.5.752-1.5 1.686v24.027c-1.044-.464-2.259-.712-3.5-.713-3.59 0-6.5 2.015-6.5 4.5s2.91 4.5 6.5 4.5 6.5-2.015 6.5-4.5v-27.814c0-.934-.669-1.686-1.5-1.686z" fill="#4c66cc"/></svg>

<svg height="64" width="64" xmlns="http://www.w3.org/2000/svg">
    <rect height="58" opacity=".2" rx="2.9" transform="matrix(0 -1 -1 0 0 0)" width="58" x="-61" y="-61"/>
    <rect fill="#752828" height="58" rx="2.9" transform="matrix(0 -1 -1 0 0 0)" width="58" x="-60" y="-61"/>
    <path d="M5.898 2A2.891 2.891 0 0 0 3 4.898v1A2.891 2.891 0 0 1 5.898 3h52.204A2.891 2.891 0 0 1 61 5.898v-1A2.891 2.891 0 0 0 58.102 2z" fill="#f4f4f7" opacity=".1"/>
    <path d="M31 30c-10.77 0-20 4.701-20 10.5S20.23 51 31 51s20-4.701 20-10.5S41.77 30 31 30zm0 4c8.56 0 16 2.91 16 6.5S39.56 47 31 47s-16-2.91-16-6.5S22.44 34 31 34z" opacity=".2"/>
    <path d="M31 29c-10.77 0-20 4.701-20 10.5S20.23 50 31 50s20-4.701 20-10.5S41.77 29 31 29zm0 4c8.56 0 16 2.91 16 6.5S39.56 46 31 46s-16-2.91-16-6.5S22.44 33 31 33z" fill="#6c7f94"/>
    <path d="M37.5 11c-.831 0-1.5.752-1.5 1.686v24.027c-1.044-.464-2.259-.712-3.5-.713-3.59 0-6.5 2.015-6.5 4.5s2.91 4.5 6.5 4.5 6.5-2.015 6.5-4.5V12.686c0-.934-.669-1.686-1.5-1.686z" opacity=".2"/>
    <path d="M37.5 10c-.831 0-1.5.752-1.5 1.686v24.027c-1.044-.464-2.259-.712-3.5-.713-3.59 0-6.5 2.015-6.5 4.5s2.91 4.5 6.5 4.5 6.5-2.015 6.5-4.5V11.686c0-.934-.669-1.686-1.5-1.686z" fill="#4c66cc"/>
</svg>
